;FLAVOR:RepRap
;TIME:4148
;Filament used: 2.87957m
;Layer height: 0.2








;POSTPROCESSED
;TweakAtZ instances: 8
;Generated with Cura_SteamEngine 3.0.4
T0
M190 S55
M104 S200
M109 S200
M82 ; absolute extrusion mode
G21 ;metric values
G90 ;absolute positioning
M82 ;set extruder to absolute mode
M107 ;start with the fan off
G28 X0 Y0 ;move X/Y to min endstops
G28 Z0 ;move Z to min endstops
G1 Z15.0 F9000 ;move the platform down 15mm
G92 E0 ;zero the extruded length
G1 F200 E3 ;extrude 3mm of feed stock
G92 E0 ;zero the extruded length again
G1 F9000
;Put printing message on LCD screen
M117 Printing...
M83 ; relative extrusion mode
;LAYER_COUNT:323








;LAYER:0
M107
M204 T400
M566 X1200 Y1200
G0 F3600 X84.04 Y99.238 Z0.2
M204 P400
;TYPE:SKIRT
G1 F1350 X84.55 Y98.887 E0.0208
G1 X85.101 Y98.604 E0.02081
G1 X85.684 Y98.395 E0.0208
G1 X86.29 Y98.263 E0.02083
G1 X87.009 Y98.209 E0.02422
G1 X132.991 Y98.21 E1.54466
G1 X133.609 Y98.25 E0.0208
G1 X134.217 Y98.369 E0.02081
G1 X134.804 Y98.566 E0.0208
G1 X135.361 Y98.836 E0.02079
G1 X135.879 Y99.176 E0.02081
G1 X136.349 Y99.58 E0.02082
G1 X136.763 Y100.041 E0.02081
G1 X137.113 Y100.551 E0.02078
G1 X137.396 Y101.102 E0.02081
G1 X137.605 Y101.686 E0.02084
G1 X137.737 Y102.291 E0.0208
G1 X137.791 Y103.01 E0.02422
G1 X137.791 Y116.991 E0.46966
G1 X137.751 Y117.609 E0.0208
G1 X137.632 Y118.217 E0.02081
G1 X137.435 Y118.804 E0.0208
G1 X137.165 Y119.361 E0.02079
G1 X136.825 Y119.879 E0.02081
G1 X136.421 Y120.349 E0.02082
G1 X135.96 Y120.762 E0.02079
G1 X135.45 Y121.113 E0.0208
G1 X134.899 Y121.396 E0.02081
G1 X134.316 Y121.605 E0.0208
G1 X133.71 Y121.737 E0.02083
G1 X132.991 Y121.791 E0.02422
G1 X87.009 Y121.791 E1.54466
G1 X86.391 Y121.751 E0.0208
G1 X85.783 Y121.632 E0.02081
G1 X85.196 Y121.435 E0.0208
G1 X84.639 Y121.165 E0.02079
G1 X84.121 Y120.825 E0.02081
G1 X83.651 Y120.421 E0.02082
G1 X83.238 Y119.96 E0.02079
G1 X82.887 Y119.45 E0.0208
G1 X82.604 Y118.899 E0.02081
G1 X82.395 Y118.316 E0.0208
G1 X82.263 Y117.71 E0.02083
G1 X82.209 Y116.991 E0.02422
G1 X82.209 Y103.009 E0.46969
G1 X82.249 Y102.391 E0.0208
G1 X82.368 Y101.783 E0.02081
G1 X82.565 Y101.196 E0.0208
G1 X82.835 Y100.639 E0.02079
G1 X83.175 Y100.121 E0.02081
G1 X83.579 Y99.651 E0.02082
G1 X84.04 Y99.238 E0.02079
G0 F3600 X84.428 Y99.445
G1 F1350 X84.931 Y99.131 E0.01992
G1 X85.471 Y98.886 E0.01992
G1 X86.04 Y98.717 E0.01994
G1 X86.625 Y98.626 E0.01989
G1 X87.009 Y98.609 E0.01291
G1 X132.991 Y98.61 E1.54466
G1 X133.583 Y98.65 E0.01993
G1 X134.164 Y98.769 E0.01992
G1 X134.723 Y98.965 E0.0199
G1 X135.251 Y99.235 E0.01992
G1 X135.738 Y99.573 E0.01991
G1 X136.175 Y99.974 E0.01992
G1 X136.555 Y100.429 E0.01991
G1 X136.869 Y100.932 E0.01992
G1 X137.114 Y101.472 E0.01992
G1 X137.283 Y102.041 E0.01994
G1 X137.374 Y102.627 E0.01992
G1 X137.391 Y103.01 E0.01288
G1 X137.391 Y116.991 E0.46966
G1 X137.351 Y117.583 E0.01993
G1 X137.232 Y118.163 E0.01989
G1 X137.036 Y118.723 E0.01993
G1 X136.766 Y119.251 E0.01992
G1 X136.428 Y119.738 E0.01991
G1 X136.027 Y120.175 E0.01992
G1 X135.572 Y120.555 E0.01991
G1 X135.069 Y120.869 E0.01992
G1 X134.529 Y121.114 E0.01992
G1 X133.96 Y121.283 E0.01994
G1 X133.375 Y121.374 E0.01989
G1 X132.991 Y121.391 E0.01291
G1 X87.009 Y121.391 E1.54466
G1 X86.417 Y121.351 E0.01993
G1 X85.837 Y121.232 E0.01989
G1 X85.277 Y121.036 E0.01993
G1 X84.749 Y120.766 E0.01992
G1 X84.262 Y120.428 E0.01991
G1 X83.825 Y120.027 E0.01992
G1 X83.445 Y119.572 E0.01991
G1 X83.131 Y119.069 E0.01992
G1 X82.886 Y118.529 E0.01992
G1 X82.717 Y117.96 E0.01994
G1 X82.626 Y117.375 E0.01989
G1 X82.609 Y116.991 E0.01291
G1 X82.609 Y103.009 E0.46969
G1 X82.649 Y102.417 E0.01993
G1 X82.768 Y101.837 E0.01989
G1 X82.964 Y101.277 E0.01993
G1 X83.234 Y100.749 E0.01992
G1 X83.572 Y100.262 E0.01991
G1 X83.973 Y99.825 E0.01992
G1 X84.428 Y99.445 E0.01991
G0 F3600 X84.365 Y100.007
G1 F1350 X84.815 Y99.665 E0.01899
G1 X85.308 Y99.389 E0.01898
G1 X85.836 Y99.185 E0.01901
G1 X86.386 Y99.058 E0.01896
G1 X87.009 Y99.009 E0.02099
G1 X132.991 Y99.01 E1.54466
G1 X133.555 Y99.05 E0.01899
G1 X134.108 Y99.169 E0.019
G1 X134.638 Y99.365 E0.01898
G1 X135.135 Y99.633 E0.01897
G1 X135.59 Y99.969 E0.019
G1 X135.993 Y100.366 E0.019
G1 X136.335 Y100.816 E0.01899
G1 X136.611 Y101.309 E0.01898
G1 X136.815 Y101.837 E0.01901
G1 X136.942 Y102.387 E0.01896
G1 X136.991 Y103.01 E0.02099
G1 X136.991 Y116.991 E0.46966
G1 X136.951 Y117.555 E0.01899
G1 X136.832 Y118.108 E0.019
G1 X136.636 Y118.638 E0.01898
G1 X136.368 Y119.135 E0.01897
G1 X136.032 Y119.59 E0.019
G1 X135.635 Y119.993 E0.019
G1 X135.185 Y120.335 E0.01899
G1 X134.692 Y120.611 E0.01898
G1 X134.164 Y120.815 E0.01901
G1 X133.614 Y120.942 E0.01896
G1 X132.991 Y120.991 E0.02099
G1 X87.009 Y120.991 E1.54466
G1 X86.445 Y120.951 E0.01899
G1 X85.892 Y120.832 E0.019
G1 X85.362 Y120.636 E0.01898
G1 X84.865 Y120.368 E0.01897
G1 X84.41 Y120.032 E0.019
G1 X84.007 Y119.635 E0.019
G1 X83.665 Y119.185 E0.01899
G1 X83.389 Y118.692 E0.01898
G1 X83.185 Y118.164 E0.01901
G1 X83.058 Y117.614 E0.01896
G1 X83.009 Y116.991 E0.02099
G1 X83.009 Y103.009 E0.46969
G1 X83.049 Y102.445 E0.01899
G1 X83.168 Y101.892 E0.019
G1 X83.364 Y101.362 E0.01898
G1 X83.632 Y100.865 E0.01897
G1 X83.968 Y100.41 E0.019
G1 X84.365 Y100.007 E0.019
G0 F3600 X84.756 Y100.201
G1 F1350 X85.198 Y99.898 E0.018
G1 X85.681 Y99.663 E0.01804
G1 X86.192 Y99.503 E0.01799
G1 X86.722 Y99.42 E0.01802
G1 X87.009 Y99.409 E0.00965
G1 X132.991 Y99.41 E1.54466
G1 X133.526 Y99.45 E0.01802
G1 X134.049 Y99.569 E0.01802
G1 X134.548 Y99.764 E0.018
G1 X135.013 Y100.032 E0.01803
G1 X135.433 Y100.365 E0.01801
G1 X135.799 Y100.757 E0.01802
G1 X136.102 Y101.199 E0.018
G1 X136.337 Y101.682 E0.01804
G1 X136.497 Y102.193 E0.01799
G1 X136.58 Y102.723 E0.01802
G1 X136.591 Y103.01 E0.00965
G1 X136.591 Y116.991 E0.46966
G1 X136.551 Y117.526 E0.01802
G1 X136.432 Y118.049 E0.01802
G1 X136.237 Y118.548 E0.018
G1 X135.969 Y119.013 E0.01803
G1 X135.636 Y119.433 E0.01801
G1 X135.244 Y119.799 E0.01802
G1 X134.802 Y120.102 E0.018
G1 X134.319 Y120.337 E0.01804
G1 X133.808 Y120.497 E0.01799
G1 X133.278 Y120.58 E0.01802
G1 X132.991 Y120.591 E0.00965
G1 X87.009 Y120.591 E1.54466
G1 X86.474 Y120.551 E0.01802
G1 X85.951 Y120.432 E0.01802
G1 X85.452 Y120.237 E0.018
G1 X84.987 Y119.969 E0.01803
G1 X84.567 Y119.636 E0.01801
G1 X84.201 Y119.244 E0.01802
G1 X83.898 Y118.802 E0.018
G1 X83.663 Y118.319 E0.01804
G1 X83.503 Y117.808 E0.01799
G1 X83.42 Y117.278 E0.01802
G1 X83.409 Y116.991 E0.00965
G1 X83.409 Y103.009 E0.46969
G1 X83.449 Y102.474 E0.01802
G1 X83.568 Y101.951 E0.01802
G1 X83.763 Y101.452 E0.018
G1 X84.031 Y100.987 E0.01803
G1 X84.364 Y100.567 E0.01801
G1 X84.756 Y100.201 E0.01802
G0 F3600 X85.145 Y100.408
G1 F1350 X85.578 Y100.147 E0.01698
G1 X86.046 Y99.957 E0.01697
G1 X86.539 Y99.844 E0.01699
G1 X87.009 Y99.809 E0.01583
G1 X132.991 Y99.81 E1.54466
G1 X133.495 Y99.85 E0.01698
G1 X133.986 Y99.969 E0.01697
G1 X134.453 Y100.164 E0.017
G1 X134.883 Y100.429 E0.01697
G1 X135.266 Y100.76 E0.01701
G1 X135.592 Y101.146 E0.01697
G1 X135.853 Y101.579 E0.01698
G1 X136.043 Y102.047 E0.01697
G1 X136.156 Y102.54 E0.01699
G1 X136.191 Y103.01 E0.01583
G1 X136.191 Y116.991 E0.46966
G1 X136.151 Y117.495 E0.01698
G1 X136.032 Y117.986 E0.01697
G1 X135.838 Y118.453 E0.01699
G1 X135.572 Y118.883 E0.01699
G1 X135.242 Y119.266 E0.01698
G1 X134.855 Y119.592 E0.017
G1 X134.422 Y119.853 E0.01698
G1 X133.954 Y120.043 E0.01697
G1 X133.461 Y120.156 E0.01699
G1 X132.991 Y120.191 E0.01583
G1 X87.009 Y120.191 E1.54466
G1 X86.505 Y120.151 E0.01698
G1 X86.014 Y120.032 E0.01697
G1 X85.547 Y119.838 E0.01699
G1 X85.117 Y119.572 E0.01699
G1 X84.734 Y119.242 E0.01698
G1 X84.408 Y118.855 E0.017
G1 X84.147 Y118.422 E0.01698
G1 X83.957 Y117.954 E0.01697
G1 X83.844 Y117.461 E0.01699
G1 X83.809 Y116.991 E0.01583
G1 X83.809 Y103.009 E0.46969
G1 X83.849 Y102.505 E0.01698
G1 X83.968 Y102.014 E0.01697
G1 X84.162 Y101.547 E0.01699
G1 X84.428 Y101.117 E0.01699
G1 X84.758 Y100.734 E0.01698
G1 X85.145 Y100.408 E0.017
G1 F6000 E-1.9
G0 F3600 X87.614 Y102.335
G0 X87.614 Y103.614
G0 X87.67 Y103.67
G0 X87.6 Y103.6
;TYPE:WALL-INNER
G1 F6000 E1.9
G1 F1350 X132.4 Y103.6 E1.50495
G1 X132.4 Y116.4 E0.42999
G1 X87.6 Y116.4 E1.50495
G1 X87.6 Y103.6 E0.42999
G0 F3600 X87.67 Y103.67
G0 X132.33 Y116.33
G0 X132.8 Y116.8
;TYPE:WALL-OUTER
G1 F1350 X87.2 Y116.8 E1.53183
G1 X87.2 Y103.2 E0.45686
G1 X132.8 Y103.2 E1.53183
G1 X132.8 Y116.8 E0.45686
G0 F3600 X132.6 Y116.8
G0 X132.33 Y116.33
G0 X132 Y116
;TYPE:WALL-INNER
G1 F1350 X88 Y116 E1.47808
G1 X88 Y104 E0.40311
G1 X132 Y104 E1.47808
G1 X132 Y116 E0.40311
G0 F3600 X131.571 Y104.701
;TYPE:SKIN
G1 F1350 X131.298 Y104.428 E0.01621
G0 F3600 X131.571 Y104.701
G1 F1350 X131.571 Y105.408 E0.02969
G1 X130.591 Y104.428 E0.0582
G1 X129.884 Y104.428 E0.02969
G1 X131.571 Y106.115 E0.10018
G1 X131.571 Y106.822 E0.02969
G1 X129.177 Y104.428 E0.14217
G1 X128.469 Y104.428 E0.02973
G1 X131.571 Y107.529 E0.18418
G1 X131.571 Y108.236 E0.02969
G1 X127.762 Y104.428 E0.22616
G1 X127.055 Y104.428 E0.02969
G1 X131.571 Y108.943 E0.26815
G1 X131.571 Y109.651 E0.02973
G1 X126.348 Y104.428 E0.31016
G1 X125.641 Y104.428 E0.02969
G1 X131.571 Y110.358 E0.35215
G1 X131.571 Y111.065 E0.02969
G1 X124.934 Y104.428 E0.39413
G1 X124.227 Y104.428 E0.02969
G1 X131.571 Y111.772 E0.43612
G1 X131.571 Y112.479 E0.02969
G1 X123.52 Y104.428 E0.4781
G1 X122.813 Y104.428 E0.02969
G1 X131.571 Y113.186 E0.52009
G1 X131.571 Y113.893 E0.02969
G1 X122.106 Y104.428 E0.56207
G1 X121.398 Y104.428 E0.02973
G1 X131.571 Y114.6 E0.60409
G1 X131.571 Y115.307 E0.02969
G1 X120.691 Y104.428 E0.64607
G1 X119.984 Y104.428 E0.02969
G1 X131.128 Y115.571 E0.66175
G1 X130.42 Y115.571 E0.02973
G1 X119.277 Y104.428 E0.66172
G1 X118.57 Y104.428 E0.02969
G1 X129.713 Y115.571 E0.66172
G1 X129.006 Y115.571 E0.02969
G1 X117.863 Y104.428 E0.66172
G1 X117.156 Y104.428 E0.02969
G1 X128.299 Y115.571 E0.66172
G1 X127.592 Y115.571 E0.02969
G1 X116.449 Y104.428 E0.66172
G1 X115.742 Y104.428 E0.02969
G1 X126.885 Y115.571 E0.66172
G1 X126.178 Y115.571 E0.02969
G1 X115.034 Y104.428 E0.66175
G1 X114.327 Y104.428 E0.02969
G1 X125.471 Y115.571 E0.66175
G1 X124.764 Y115.571 E0.02969
G1 X113.62 Y104.428 E0.66175
G1 X112.913 Y104.428 E0.02969
G1 X124.056 Y115.571 E0.66172
G1 X123.349 Y115.571 E0.02969
G1 X112.206 Y104.428 E0.66172
G1 X111.499 Y104.428 E0.02969
G1 X122.642 Y115.571 E0.66172
G1 X121.935 Y115.571 E0.02969
G1 X110.792 Y104.428 E0.66172
G1 X110.085 Y104.428 E0.02969
G1 X121.228 Y115.571 E0.66172
G1 X120.521 Y115.571 E0.02969
G1 X109.377 Y104.427 E0.66178
G1 X108.67 Y104.427 E0.02969
G1 X119.814 Y115.571 E0.66178
G1 X119.107 Y115.571 E0.02969
G1 X107.963 Y104.427 E0.66178
G1 X107.256 Y104.427 E0.02969
G1 X118.4 Y115.571 E0.66178
G1 X117.692 Y115.571 E0.02973
G1 X106.548 Y104.427 E0.66178
G1 X105.841 Y104.427 E0.02969
G1 X116.985 Y115.571 E0.66178
G1 X116.278 Y115.571 E0.02969
G1 X105.134 Y104.427 E0.66178
G1 X104.427 Y104.427 E0.02969
G1 X115.571 Y115.571 E0.66178
G1 X114.864 Y115.571 E0.02969
G1 X103.72 Y104.427 E0.66178
G1 X103.013 Y104.427 E0.02969
G1 X114.157 Y115.571 E0.66178
G1 X113.45 Y115.571 E0.02969
G1 X102.306 Y104.427 E0.66178
G1 X101.599 Y104.427 E0.02969
G1 X112.743 Y115.571 E0.66178
G1 X112.036 Y115.571 E0.02969
G1 X100.892 Y104.427 E0.66178
G1 X100.185 Y104.427 E0.02969
G1 X111.329 Y115.571 E0.66178
G1 X110.621 Y115.571 E0.02973
G1 X99.477 Y104.427 E0.66178
G1 X98.77 Y104.427 E0.02969
G1 X109.914 Y115.57 E0.66175
G1 X109.206 Y115.57 E0.02973
G1 X98.063 Y104.427 E0.66172
G1 X97.356 Y104.427 E0.02969
G1 X108.499 Y115.57 E0.66172
G1 X107.792 Y115.57 E0.02969
G1 X96.649 Y104.427 E0.66172
G1 X95.942 Y104.427 E0.02969
G1 X107.085 Y115.57 E0.66172
G1 X106.378 Y115.57 E0.02969
G1 X95.235 Y104.427 E0.66172
G1 X94.528 Y104.427 E0.02969
G1 X105.671 Y115.57 E0.66172
G1 X104.964 Y115.57 E0.02969
G1 X93.821 Y104.427 E0.66172
G1 X93.113 Y104.427 E0.02973
G1 X104.257 Y115.57 E0.66175
G1 X103.55 Y115.57 E0.02969
G1 X92.406 Y104.427 E0.66175
G1 X91.699 Y104.427 E0.02969
G1 X102.843 Y115.57 E0.66175
G1 X102.135 Y115.57 E0.02973
G1 X90.992 Y104.427 E0.66172
G1 X90.285 Y104.427 E0.02969
M104 S220
G1 X101.428 Y115.57 E0.66172
G1 X100.721 Y115.57 E0.02969
G1 X89.578 Y104.427 E0.66172
G1 X88.871 Y104.427 E0.02969
G1 X100.014 Y115.57 E0.66172
G1 X99.307 Y115.57 E0.02969
G1 X88.427 Y104.691 E0.64607
G1 X88.427 Y105.398 E0.02969
G1 X98.6 Y115.57 E0.60409
G1 X97.893 Y115.57 E0.02969
G1 X88.427 Y106.105 E0.5621
G1 X88.427 Y106.812 E0.02969
G1 X97.186 Y115.57 E0.52012
G1 X96.479 Y115.57 E0.02969
G1 X88.427 Y107.519 E0.47813
G1 X88.427 Y108.226 E0.02969
G1 X95.771 Y115.57 E0.43612
G1 X95.064 Y115.57 E0.02969
G1 X88.427 Y108.934 E0.3941
G1 X88.427 Y109.641 E0.02969
G1 X94.357 Y115.57 E0.35212
G1 X93.65 Y115.57 E0.02969
G1 X88.427 Y110.348 E0.31013
G1 X88.427 Y111.055 E0.02969
G1 X92.943 Y115.57 E0.26815
G1 X92.236 Y115.57 E0.02969
G1 X88.427 Y111.762 E0.22616
G1 X88.427 Y112.469 E0.02969
G1 X91.529 Y115.57 E0.18418
G1 X90.822 Y115.57 E0.02969
G1 X88.427 Y113.176 E0.1422
G1 X88.427 Y113.883 E0.02969
G1 X90.115 Y115.57 E0.10021
G1 X89.407 Y115.57 E0.02973
G1 X88.427 Y114.59 E0.0582
G1 X88.427 Y115.298 E0.02973
G1 X88.7 Y115.57 E0.01618
G0 F3600 X87.67 Y103.67
G0 X87.6 Y103.6
;TIME_ELAPSED:98.548641








;LAYER:1
M140 S55
M106 S127.5
G0 F5400 X87.6 Y103.6 Z0.4
;TYPE:WALL-INNER
G1 F2025 X132.4 Y103.6 E1.50495
G1 X132.4 Y116.4 E0.42999
G1 X87.6 Y116.4 E1.50495
G1 X87.6 Y103.6 E0.42999
G0 F5400 X87.67 Y103.67
G0 X132.33 Y116.33
G0 X132.8 Y116.8
;TYPE:WALL-OUTER
G1 F1575 X87.2 Y116.8 E1.53183
G1 X87.2 Y103.2 E0.45686
G1 X132.8 Y103.2 E1.53183
G1 X132.8 Y116.8 E0.45686
G0 F5400 X132.6 Y116.8
G0 X132.33 Y116.33
G0 X132 Y116
;TYPE:WALL-INNER
G1 F2025 X88 Y116 E1.47808
G1 X88 Y104 E0.40311
G1 X132 Y104 E1.47808
G1 X132 Y116 E0.40311
G0 F5400 X131.571 Y115.208
;TYPE:SKIN
G1 F1575 X131.571 Y114.501 E0.02969
G1 X130.5 Y115.572 E0.0636
G1 X129.793 Y115.572 E0.02969
G1 X131.571 Y113.794 E0.10558
G1 X131.571 Y113.087 E0.02969
G1 X129.086 Y115.572 E0.14757
G1 X128.379 Y115.572 E0.02969
G1 X131.571 Y112.38 E0.18955
G1 X131.571 Y111.673 E0.02969
G1 X127.672 Y115.572 E0.23154
G1 X126.965 Y115.572 E0.02969
G1 X131.571 Y110.966 E0.27352
G1 X131.571 Y110.259 E0.02969
G1 X126.258 Y115.572 E0.31551
G1 X125.551 Y115.572 E0.02969
G1 X131.571 Y109.552 E0.35749
G1 X131.571 Y108.844 E0.02973
G1 X124.843 Y115.572 E0.39954
G1 X124.136 Y115.572 E0.02969
G1 X131.571 Y108.137 E0.44152
G1 X131.571 Y107.43 E0.02969
G1 X123.429 Y115.572 E0.48351
G1 X122.722 Y115.572 E0.02969
G1 X131.571 Y106.723 E0.52549
G1 X131.571 Y106.016 E0.02969
G1 X122.015 Y115.572 E0.56747
G1 X121.308 Y115.572 E0.02969
G1 X131.571 Y105.309 E0.60946
G1 X131.571 Y104.602 E0.02969
G1 X120.601 Y115.572 E0.65144
G1 X119.894 Y115.572 E0.02969
G1 X131.038 Y104.427 E0.66181
G1 X130.331 Y104.427 E0.02969
G1 X119.187 Y115.572 E0.66181
G1 X118.479 Y115.572 E0.02973
G1 X129.624 Y104.427 E0.66184
G1 X128.917 Y104.427 E0.02969
G1 X117.772 Y115.572 E0.66184
G1 X117.065 Y115.572 E0.02969
G1 X128.21 Y104.427 E0.66184
G1 X127.503 Y104.427 E0.02969
G1 X116.358 Y115.572 E0.66184
G1 X115.651 Y115.572 E0.02969
G1 X126.796 Y104.427 E0.66184
G1 X126.089 Y104.427 E0.02969
G1 X114.944 Y115.572 E0.66184
G1 X114.237 Y115.572 E0.02969
G1 X125.382 Y104.427 E0.66184
G1 X124.674 Y104.427 E0.02973
G1 X113.53 Y115.572 E0.66181
G1 X112.823 Y115.572 E0.02969
G1 X123.967 Y104.427 E0.66181
G1 X123.26 Y104.427 E0.02969
G1 X112.116 Y115.572 E0.66181
G1 X111.408 Y115.572 E0.02973
G1 X122.553 Y104.427 E0.66184
G1 X121.846 Y104.427 E0.02969
G1 X110.701 Y115.572 E0.66184
G1 X109.995 Y115.571 E0.02965
G1 X121.139 Y104.427 E0.66178
G1 X120.432 Y104.427 E0.02969
G1 X109.288 Y115.571 E0.66178
G1 X108.581 Y115.571 E0.02969
G1 X119.725 Y104.427 E0.66178
G1 X119.018 Y104.427 E0.02969
G1 X107.874 Y115.571 E0.66178
G1 X107.166 Y115.571 E0.02973
G1 X118.31 Y104.427 E0.66178
G1 X117.603 Y104.427 E0.02969
G1 X106.459 Y115.571 E0.66178
G1 X105.752 Y115.571 E0.02969
G1 X116.896 Y104.427 E0.66178
G1 X116.189 Y104.427 E0.02969
G1 X105.045 Y115.571 E0.66178
G1 X104.338 Y115.571 E0.02969
